X:11
T: Bile Them Cabbage Down
K: D
M:4/4
L:1/8
|: "D" FF FF | "G" G2 G2 | "D" FF FD | "A7" E2 E>E |
w: Bile them cab-bage down, down, Turn them hoe-cakes round, round. The
"D" FF FF | "G" GG GG | "D" FF "A7" EE | "D" D4 :|
w: on-ly song that I could sing was bile them cab-bage down.
|: "D" AA AF | AA A>F | AA AF | "A7" E2 z A |
w: Took my gal tothe black-smith shop, To have her mouth made small.  She
"D" AA AF | "G" GG GG | "D" FF "A7" EE | "D" D4 :|
w: turned a-round a time or two, And swal-lowed shop and all.

% From Fiddler's Fake Book,  with some simplifications by Kate
